X:1
T:Jamie Lyall
T:Jamie Lyall
T:Peter Milne
C:Peter Milne
L:1/8
M:4/4
K:D
V:1 treble 
V:1
 F | D/F/A/d/ f>e dDFA | B/c/d/c/ B/A/G/F/ G/F/E/D/ EF | D/F/A/d/ f>e dDFA | %4
 B/c/d/B/ A/G/F/E/ Ddd :| D/E/F/G/ AD BDFA | dB/A/ G/F/E/D/ FEEF | D/E/F/G/ AD BDFA | %8
 B/c/d/B/ A/G/F/E/ DddA, | D/E/F/G/ AD BDFA | d/c/B/A/ G/F/E/D/ E/D/C/B,/ A,/G/F/E/ | %11
 D/F/A/d/ f>e dDFA | B/c/d/B/ A/G/F/E/ Ddd || %13

